resources/light/output.svg

<svg width="24" height="24" fill="none" xmlns="http://www.w3.org/2000/svg"><path fill-rule="evenodd" clip-rule="evenodd" d="M19.5 0v1.5L21 3v19.5L19.5 24h-15L3 22.5V3l1.5-1.5V0H6v1.5h3V0h1.5v1.5h3V0H15v1.5h3V0h1.5zm-15 22.5h15V3h-15v19.5zM7.5 6h9v1.5h-9V6zm9 6h-9v1.5h9V12zm-9 6h9v1.5h-9V18z" fill="#424242"/></svg>

<svg width="24" height="24" viewBox="0 0 24 24" fill="none" xmlns="http://www.w3.org/2000/svg">
<path fill-rule="evenodd" clip-rule="evenodd" d="M19.5 0V1.5L21 3V22.5L19.5 24H4.5L3 22.5V3L4.5 1.5V0H6V1.5H9V0H10.5V1.5H13.5V0H15V1.5H18V0H19.5ZM4.5 22.5H19.5V3H4.5V22.5ZM7.5 6H16.5V7.5H7.5V6ZM16.5 12H7.5V13.5H16.5V12ZM7.5 18H16.5V19.5H7.5V18Z" fill="#424242"/>
</svg>
